X:1
T:Abridge, CM
T:Abridge, CM
T:Isaac Smith, ca. 1770
T:Public Domain Courtesy of the Cyber Hymnal™
C:Isaac Smith, ca. 1770
Z:Public Domain
Z:Courtesy of the Cyber Hymnal™
%%score ( 1 2 ) ( 3 4 )
L:1/8
Q:1/4=115
M:3/4
K:Eb
V:1 treble 
V:2 treble 
V:3 bass 
V:4 bass 
V:1
 [B,E]2 | [EB]4 [Ge]2 | (e2 d2) [Fc]2 | ([GB]2 [DA]2) [EG]2 | ([EG]2 [DF]2) [EG]2 | [Gc]4 [FB]2 | %6
 [GB]4 [F=A]2 | !fermata![DB]4 [FB]2 | (G2 A2) [Ec]2 | B4 [EB]2 | ([Ec]2 [Fd]2) [Ge]2 x2 | %11
 ([Ge]2 [Fd]2) [DB]2 | (e2 G2) [EB]2 | (A2 G2) [DF]2 | E4 |] %15
V:2
 x2 | x6 | F4 x2 | x6 | x6 | x6 | x6 | x6 | E4 x2 | (E2 D2) x2 | x8 | x6 | E4 x2 | E4 x2 | E4 |] %15
V:3
 [E,G,]2 | [G,B,]4 [E,B,]2 | B,4 [A,D]2 | ([G,E]2 [F,A,]2) [E,B,]2 | [B,,B,]4 [E,B,]2 | %5
 [C,E]4 [D,F]2 | (E2 D2) [F,C]2 | !fermata![B,,B,]4 [D,B,]2 | ([E,B,]2 [C,A,]2) [A,,A,]2 | %9
 ([E,G,]2 [F,A,]2) [G,B,]2 | A,4 F,2 [E,B,]2 | [B,,B,]4 [A,B,]2 | E4 [G,,_D]2 | %13
 [A,,C]2 [B,,B,]2 (B,A,) | [E,G,]4 |] %15
V:4
 x2 | x6 | B,4 x2 | x6 | x6 | x6 | E,4 x2 | x6 | x6 | x6 | A,2 x6 | x6 | (G,2 E,2) x2 | x4 B,,2 | %14
 x4 |] %15

